flaticon/gastronomy/candy.svg

<svg xmlns="http://www.w3.org/2000/svg" width="32" height="32" viewBox="0 0 24 24">
    <path d="M 23.832031 5.316406 C 23.644531 5.078125 23.335938 4.980469 23.042969 5.070312 L 22.667969 5.1875 L 22.847656 4.613281 C 22.929688 4.359375 22.859375 4.089844 22.675781 3.902344 C 22.488281 3.714844 22.214844 3.652344 21.964844 3.726562 L 21.386719 3.90625 L 21.566406 3.332031 C 21.644531 3.078125 21.578125 2.804688 21.390625 2.621094 C 21.203125 2.433594 20.933594 2.367188 20.683594 2.445312 L 20.105469 2.625 L 20.285156 2.050781 C 20.363281 1.796875 20.296875 1.523438 20.109375 1.339844 C 19.925781 1.152344 19.652344 1.085938 19.398438 1.164062 L 18.824219 1.34375 L 18.957031 0.914062 C 19.046875 0.632812 18.953125 0.335938 18.722656 0.152344 C 18.492188 -0.0273438 18.175781 -0.0507812 17.925781 0.101562 C 16.828125 0.75 16.179688 1.328125 15.988281 1.824219 L 15.203125 5.675781 C 13.734375 5.222656 12.023438 5.429688 10.414062 6.203125 L 10.414062 6.199219 L 10.332031 6.242188 C 9.859375 6.472656 9.394531 6.753906 8.945312 7.082031 C 8.914062 7.109375 8.878906 7.132812 8.847656 7.160156 C 8.703125 7.265625 8.5625 7.378906 8.425781 7.496094 C 8.378906 7.53125 8.332031 7.570312 8.289062 7.609375 C 8.121094 7.757812 7.957031 7.90625 7.792969 8.070312 C 7.621094 8.242188 7.460938 8.417969 7.304688 8.601562 C 7.269531 8.640625 7.234375 8.683594 7.199219 8.722656 C 7.050781 8.902344 6.90625 9.085938 6.769531 9.269531 C 6.769531 9.273438 6.769531 9.273438 6.769531 9.273438 C 6.398438 9.785156 6.089844 10.324219 5.84375 10.871094 L 5.835938 10.886719 C 5.152344 12.421875 4.972656 14.03125 5.386719 15.429688 L 2.019531 15.929688 L 1.925781 15.953125 C 1.398438 16.15625 0.792969 16.8125 0.121094 17.90625 C -0.0390625 18.160156 -0.0195312 18.476562 0.164062 18.714844 C 0.347656 18.949219 0.648438 19.046875 0.933594 18.957031 L 1.335938 18.832031 L 1.15625 19.40625 C 1.078125 19.660156 1.144531 19.929688 1.332031 20.117188 C 1.519531 20.304688 1.789062 20.371094 2.042969 20.292969 L 2.617188 20.113281 L 2.4375 20.6875 C 2.359375 20.941406 2.425781 21.210938 2.613281 21.398438 C 2.796875 21.585938 3.070312 21.652344 3.324219 21.574219 L 3.898438 21.394531 L 3.71875 21.96875 C 3.640625 22.222656 3.707031 22.496094 3.894531 22.679688 C 4.082031 22.867188 4.355469 22.9375 4.605469 22.855469 L 5.179688 22.675781 L 5.054688 23.078125 C 4.964844 23.363281 5.0625 23.664062 5.296875 23.847656 C 5.425781 23.949219 5.578125 24 5.734375 24 C 5.863281 24 5.992188 23.964844 6.105469 23.894531 C 7.199219 23.21875 7.855469 22.613281 8.058594 22.085938 L 8.605469 18.554688 C 9.96875 18.921875 11.53125 18.730469 13.019531 18.066406 L 13.023438 18.070312 L 13.148438 18.011719 C 13.421875 17.882812 13.691406 17.738281 13.957031 17.582031 C 13.972656 17.570312 13.988281 17.5625 14.003906 17.554688 C 14.214844 17.425781 14.421875 17.292969 14.625 17.148438 C 14.644531 17.132812 14.660156 17.117188 14.679688 17.105469 C 14.847656 16.980469 15.011719 16.851562 15.175781 16.71875 C 15.222656 16.675781 15.273438 16.636719 15.320312 16.59375 C 15.496094 16.441406 15.671875 16.28125 15.839844 16.113281 C 15.996094 15.957031 16.148438 15.792969 16.292969 15.628906 C 16.339844 15.578125 16.382812 15.523438 16.425781 15.46875 C 16.527344 15.347656 16.625 15.226562 16.714844 15.105469 C 16.757812 15.050781 16.804688 14.992188 16.84375 14.933594 C 16.96875 14.761719 17.089844 14.589844 17.199219 14.414062 C 17.199219 14.410156 17.203125 14.40625 17.207031 14.402344 C 17.324219 14.214844 17.429688 14.027344 17.53125 13.835938 C 17.539062 13.816406 17.550781 13.800781 17.5625 13.78125 L 17.710938 13.496094 L 17.707031 13.492188 C 18.449219 11.929688 18.667969 10.269531 18.269531 8.832031 L 22.121094 8.042969 L 22.191406 8.023438 C 22.371094 7.953125 22.921875 7.742188 23.882812 6.136719 C 24.039062 5.875 24.019531 5.554688 23.832031 5.316406 Z M 16.621094 13.679688 C 16.542969 13.816406 16.457031 13.953125 16.371094 14.085938 C 16.351562 14.117188 16.332031 14.148438 16.308594 14.179688 C 16.230469 14.296875 16.148438 14.410156 16.0625 14.523438 C 16.03125 14.566406 16.003906 14.605469 15.972656 14.648438 C 15.890625 14.753906 15.800781 14.859375 15.710938 14.964844 C 15.675781 15.003906 15.644531 15.046875 15.613281 15.082031 C 15.488281 15.226562 15.359375 15.363281 15.222656 15.5 C 15.082031 15.640625 14.933594 15.777344 14.785156 15.90625 C 14.746094 15.941406 14.703125 15.976562 14.664062 16.007812 C 14.546875 16.109375 14.425781 16.207031 14.304688 16.296875 C 14.269531 16.324219 14.234375 16.347656 14.199219 16.375 C 14.050781 16.484375 13.898438 16.59375 13.738281 16.691406 C 13.738281 16.695312 13.738281 16.695312 13.738281 16.695312 C 13.5625 16.808594 13.378906 16.914062 13.195312 17.011719 L 11.578125 15.394531 L 11.417969 15.378906 C 10.652344 15.3125 9.929688 14.976562 9.386719 14.433594 C 8.839844 13.890625 8.503906 13.167969 8.441406 12.398438 L 8.425781 12.242188 L 6.902344 10.714844 C 6.933594 10.652344 6.972656 10.589844 7.007812 10.53125 C 7.054688 10.445312 7.101562 10.359375 7.152344 10.277344 C 7.203125 10.195312 7.257812 10.117188 7.308594 10.035156 C 7.363281 9.953125 7.421875 9.871094 7.480469 9.792969 C 7.53125 9.71875 7.585938 9.640625 7.644531 9.566406 C 7.714844 9.476562 7.789062 9.386719 7.863281 9.296875 C 7.910156 9.238281 7.957031 9.179688 8.007812 9.121094 C 8.136719 8.972656 8.273438 8.828125 8.410156 8.6875 C 8.542969 8.554688 8.679688 8.425781 8.820312 8.304688 C 8.898438 8.238281 8.976562 8.171875 9.054688 8.109375 C 9.117188 8.058594 9.175781 8.003906 9.242188 7.957031 C 9.335938 7.882812 9.433594 7.8125 9.527344 7.746094 C 9.578125 7.710938 9.625 7.671875 9.675781 7.640625 C 9.777344 7.570312 9.878906 7.503906 9.984375 7.441406 C 10.03125 7.410156 10.082031 7.378906 10.132812 7.351562 C 10.171875 7.328125 10.214844 7.304688 10.257812 7.28125 L 11.820312 8.84375 L 11.980469 8.859375 C 12.75 8.925781 13.472656 9.257812 14.015625 9.804688 C 14.558594 10.347656 14.894531 11.070312 14.960938 11.839844 L 14.976562 12 L 16.636719 13.660156 C 16.628906 13.664062 16.625 13.671875 16.621094 13.679688 Z M 8.40625 17.574219 L 7.898438 17.375 L 7.226562 21.8125 C 7.097656 22.085938 6.660156 22.480469 6.023438 22.910156 L 6.105469 22.636719 C 6.183594 22.386719 6.117188 22.113281 5.929688 21.925781 C 5.796875 21.792969 5.617188 21.71875 5.433594 21.71875 C 5.359375 21.71875 5.289062 21.730469 5.222656 21.75 L 4.644531 21.929688 L 4.824219 21.355469 C 4.902344 21.101562 4.835938 20.832031 4.648438 20.644531 C 4.464844 20.457031 4.191406 20.390625 3.9375 20.46875 L 3.363281 20.648438 L 3.542969 20.074219 C 3.621094 19.820312 3.554688 19.546875 3.367188 19.363281 C 3.179688 19.175781 2.910156 19.109375 2.65625 19.1875 L 2.082031 19.367188 L 2.261719 18.792969 C 2.339844 18.539062 2.273438 18.265625 2.085938 18.082031 C 1.898438 17.894531 1.625 17.828125 1.375 17.90625 L 1.101562 17.992188 C 1.53125 17.351562 1.925781 16.914062 2.203125 16.785156 L 6.601562 16.132812 L 6.378906 15.613281 C 5.878906 14.433594 5.957031 12.976562 6.511719 11.5625 L 7.585938 12.636719 C 7.703125 13.546875 8.117188 14.398438 8.769531 15.050781 C 9.417969 15.699219 10.269531 16.117188 11.183594 16.230469 L 12.359375 17.40625 C 10.988281 17.945312 9.582031 18.027344 8.40625 17.574219 Z M 21.902344 7.199219 L 17.101562 8.179688 L 17.292969 8.664062 C 17.78125 9.902344 17.664062 11.394531 17.046875 12.835938 L 15.8125 11.601562 C 15.699219 10.691406 15.285156 9.835938 14.632812 9.183594 C 13.980469 8.535156 13.128906 8.117188 12.214844 8.003906 L 11.082031 6.867188 C 12.570312 6.234375 14.117188 6.128906 15.355469 6.660156 L 15.847656 6.875 L 16.8125 2.109375 C 16.910156 1.910156 17.265625 1.550781 17.988281 1.085938 L 17.894531 1.382812 C 17.816406 1.636719 17.882812 1.910156 18.070312 2.09375 C 18.257812 2.28125 18.53125 2.347656 18.78125 2.269531 L 19.355469 2.089844 L 19.175781 2.667969 C 19.097656 2.917969 19.167969 3.191406 19.351562 3.378906 C 19.539062 3.5625 19.8125 3.628906 20.0625 3.550781 L 20.640625 3.371094 L 20.460938 3.949219 C 20.382812 4.199219 20.449219 4.472656 20.632812 4.660156 C 20.820312 4.84375 21.09375 4.910156 21.34375 4.832031 L 21.921875 4.65625 L 21.742188 5.230469 C 21.664062 5.480469 21.730469 5.753906 21.917969 5.941406 C 22.101562 6.128906 22.375 6.191406 22.628906 6.117188 L 22.925781 6.023438 C 22.457031 6.75 22.101562 7.105469 21.902344 7.199219 Z M 21.902344 7.199219"/>
    <path d="M10.003906 10.421875C9.066406 11.355469 9.066406 12.878906 10.003906 13.816406 10.46875 14.285156 11.085938 14.519531 11.699219 14.519531 12.316406 14.519531 12.929688 14.285156 13.398438 13.816406 14.332031 12.878906 14.332031 11.355469 13.398438 10.421875 12.460938 9.484375 10.9375 9.484375 10.003906 10.421875zM12.78125 13.199219C12.183594 13.792969 11.214844 13.792969 10.621094 13.199219 10.023438 12.601562 10.023438 11.632812 10.621094 11.039062 10.917969 10.738281 11.308594 10.589844 11.699219 10.589844 12.089844 10.589844 12.480469 10.738281 12.78125 11.039062 13.375 11.632812 13.375 12.601562 12.78125 13.199219zM18.808594 6.292969C18.585938 6.320312 18.386719 6.328125 18.199219 6.332031 18.039062 6.339844 17.886719 6.34375 17.730469 6.363281 18.207031 5.617188 18.441406 4.675781 18.328125 3.765625 18.296875 3.523438 18.078125 3.355469 17.839844 3.386719 17.601562 3.414062 17.429688 3.632812 17.460938 3.871094 17.601562 4.996094 17.046875 6.214844 16.167969 6.703125 15.957031 6.824219 15.882812 7.089844 16 7.296875 16.070312 7.421875 16.191406 7.496094 16.324219 7.515625 16.347656 7.597656 16.382812 7.671875 16.453125 7.730469 16.535156 7.800781 16.636719 7.835938 16.734375 7.835938 16.859375 7.835938 16.984375 7.78125 17.070312 7.679688 17.449219 7.230469 17.675781 7.222656 18.230469 7.207031 18.429688 7.199219 18.65625 7.191406 18.917969 7.15625 19.15625 7.128906 19.328125 6.910156 19.296875 6.671875 19.265625 6.429688 19.046875 6.265625 18.808594 6.292969zM7.136719 16.800781C7.113281 16.71875 7.074219 16.640625 7.003906 16.582031 6.820312 16.425781 6.542969 16.449219 6.386719 16.632812 6.007812 17.082031 5.78125 17.089844 5.230469 17.109375 5.03125 17.113281 4.804688 17.121094 4.539062 17.15625 4.300781 17.183594 4.128906 17.402344 4.160156 17.644531 4.1875 17.863281 4.375 18.023438 4.59375 18.023438 4.609375 18.023438 4.628906 18.023438 4.648438 18.023438 4.871094 17.992188 5.070312 17.988281 5.261719 17.980469 5.417969 17.976562 5.570312 17.96875 5.726562 17.949219 5.25 18.695312 5.015625 19.636719 5.128906 20.550781 5.15625 20.769531 5.34375 20.929688 5.5625 20.929688 5.582031 20.929688 5.597656 20.929688 5.617188 20.929688 5.855469 20.898438 6.027344 20.679688 5.996094 20.441406 5.855469 19.316406 6.410156 18.097656 7.289062 17.609375 7.5 17.488281 7.574219 17.222656 7.457031 17.015625 7.386719 16.890625 7.265625 16.820312 7.136719 16.800781zM7.136719 16.800781"/>
</svg>

<svg xmlns="http://www.w3.org/2000/svg" width="32" height="32" viewBox="0 0 24 24">
    <path d="M23.832 5.316a.725.725 0 0 0-.789-.246l-.375.117.18-.574a.703.703 0 0 0-.172-.71.715.715 0 0 0-.711-.176l-.578.18.18-.575a.702.702 0 0 0-.176-.71.7.7 0 0 0-.707-.177l-.579.18.18-.574a.702.702 0 0 0-.176-.711.702.702 0 0 0-.71-.176l-.575.18.133-.43a.701.701 0 0 0-1.031-.813c-1.098.649-1.746 1.227-1.938 1.723l-.785 3.852c-1.469-.453-3.18-.246-4.789.527V6.2l-.082.043c-.473.23-.937.512-1.387.84-.03.027-.066.05-.097.078a6.91 6.91 0 0 0-.422.336 1.911 1.911 0 0 0-.137.113 8.934 8.934 0 0 0-.984.992c-.035.04-.07.083-.106.122-.148.18-.293.363-.43.547v.003a9.058 9.058 0 0 0-.925 1.598l-.008.016c-.684 1.535-.863 3.144-.45 4.543l-3.366.5-.094.023c-.528.203-1.133.86-1.805 1.953a.7.7 0 0 0 .043.809.702.702 0 0 0 .77.242l.402-.125-.18.574a.704.704 0 0 0 .176.711.704.704 0 0 0 .711.176l.574-.18-.18.575a.704.704 0 0 0 .176.71.702.702 0 0 0 .711.176l.574-.18-.18.575a.702.702 0 0 0 .177.71c.187.188.46.259.71.176l.575-.18-.125.403a.702.702 0 0 0 .242.77.701.701 0 0 0 .808.047c1.094-.676 1.75-1.282 1.954-1.81l.546-3.53c1.364.367 2.926.175 4.415-.489l.003.004.125-.058c.274-.13.543-.274.809-.43a10.584 10.584 0 0 0 .668-.434c.02-.015.035-.03.055-.043.168-.125.332-.253.496-.386.047-.043.097-.082.144-.125a9.953 9.953 0 0 0 .973-.965c.047-.05.09-.106.133-.16.101-.121.199-.242.289-.364.043-.054.09-.113.129-.171a8.75 8.75 0 0 0 .355-.52c0-.004.004-.008.008-.012.117-.187.223-.375.324-.566.008-.02.02-.035.032-.055l.148-.285-.004-.004c.742-1.562.961-3.222.563-4.66l3.851-.789.07-.02c.18-.07.73-.28 1.692-1.886a.718.718 0 0 0-.051-.82zm-7.21 8.364a8.72 8.72 0 0 1-.25.406 6.908 6.908 0 0 1-.309.438c-.032.042-.06.081-.09.124-.082.106-.172.211-.262.317-.035.039-.066.082-.098.117a7.853 7.853 0 0 1-.828.824c-.039.035-.082.07-.12.102-.118.101-.24.199-.36.289-.035.027-.07.05-.106.078-.148.11-.3.219-.46.316v.004c-.177.114-.36.22-.544.317l-1.617-1.617-.16-.016a3.28 3.28 0 0 1-2.031-.945 3.24 3.24 0 0 1-.946-2.036l-.015-.156-1.524-1.527c.032-.063.07-.125.106-.184.047-.086.094-.172.144-.254.051-.082.106-.16.157-.242.054-.082.113-.164.171-.242.051-.074.106-.152.165-.227.07-.09.144-.18.218-.27.047-.058.094-.116.145-.175a7.553 7.553 0 0 1 .813-.816c.077-.067.156-.133.234-.196.062-.05.12-.105.187-.152.094-.074.192-.144.285-.21.051-.036.098-.075.149-.106.101-.07.203-.137.308-.2.047-.03.098-.062.149-.09.039-.023.082-.046.125-.07l1.562 1.563.16.015a3.26 3.26 0 0 1 2.036.946 3.28 3.28 0 0 1 .945 2.035l.016.16 1.66 1.66c-.008.004-.012.012-.016.02zm-8.216 3.894l-.508-.199-.671 4.438c-.13.273-.567.667-1.204 1.097l.082-.273a.706.706 0 0 0-.882-.887l-.578.18.18-.575a.704.704 0 0 0-.177-.71.702.702 0 0 0-.71-.176l-.575.18.18-.575a.702.702 0 0 0-.176-.71.704.704 0 0 0-.71-.177l-.575.18.18-.574a.706.706 0 1 0-.887-.887l-.273.086c.43-.64.824-1.078 1.101-1.207l4.399-.652-.223-.52c-.5-1.18-.422-2.636.133-4.05l1.074 1.074a4.14 4.14 0 0 0 3.598 3.594l1.175 1.175c-1.37.54-2.777.621-3.953.168zM21.902 7.2l-4.8.98.191.485c.488 1.238.371 2.73-.246 4.172l-1.235-1.234a4.15 4.15 0 0 0-1.18-2.418 4.162 4.162 0 0 0-2.417-1.18l-1.133-1.137c1.488-.633 3.035-.738 4.273-.207l.493.215.964-4.766c.098-.199.454-.558 1.176-1.023l-.093.297a.706.706 0 1 0 .887.887l.573-.18-.18.578a.715.715 0 0 0 .177.71c.187.184.46.25.71.173l.579-.18-.18.578a.713.713 0 0 0 .172.711c.187.184.46.25.71.172l.579-.176-.18.574a.706.706 0 0 0 .887.887l.297-.094c-.469.727-.824 1.082-1.024 1.176zm0 0"/>
    <path d="M10.004 10.422a2.4 2.4 0 1 0 3.394 3.394 2.4 2.4 0 0 0-3.394-3.394zm2.777 2.777a1.532 1.532 0 0 1-2.16 0 1.525 1.525 0 0 1 0-2.16 1.523 1.523 0 0 1 2.16 0 1.532 1.532 0 0 1 0 2.16zm0 0M18.809 6.293a5.871 5.871 0 0 1-.61.039c-.16.008-.312.012-.469.031.477-.746.711-1.687.598-2.597a.436.436 0 0 0-.488-.38.432.432 0 0 0-.38.485c.142 1.125-.413 2.344-1.292 2.832a.438.438 0 0 0-.168.594c.07.125.191.2.324.219a.41.41 0 0 0 .13.214.435.435 0 0 0 .616-.05c.38-.45.606-.457 1.16-.473.2-.008.426-.016.688-.05a.432.432 0 0 0 .379-.485.438.438 0 0 0-.488-.379zm0 0M7.137 16.8a.428.428 0 0 0-.133-.218.439.439 0 0 0-.617.05c-.38.45-.606.458-1.157.477a5.97 5.97 0 0 0-.69.047.434.434 0 0 0 .054.867h.054c.223-.03.422-.035.614-.043.156-.003.308-.011.465-.03a3.992 3.992 0 0 0-.598 2.6.435.435 0 0 0 .434.38h.054a.438.438 0 0 0 .38-.489c-.142-1.125.413-2.343 1.292-2.832a.438.438 0 0 0 .168-.593.435.435 0 0 0-.32-.215zm0 0"/>
</svg>
